X: 37687
T: Snug In The Blanket
R: jig
M: 6/8
K: Gmajor
.A/.c/.AB cBc|EE/E/E c2 A|B2 G AFD|GFG BAG|
A2 B cBc|EE/E/E c2 A|.B/.c/.d B cAF|G2 A BAG:|
|:FGA AFd|AFd AFd|FGA AFD|~G3 BAG|
FGA AFd|AFd ABc|.B/.c/.dB cAF|~G2 A BAG:|
|:FGA AFA|DD/D/D AFA|DD/D/D AFD|EE/E/E GFE|
FGA AFA|DD/D/D ABc|.B/.c/.dB cAF|G3 G2 z:|

